X:1
T:Je prens en gré
T:Je prens en gré 3v
T:Tielman Susato
T:Source : Le premier Livre des Chansons à 3 parties---Anvers---T.Susato---1544. Editor : André Vierendeels (02/02/15). 
T:Notes : Original clefs : C1, C3, F4 Original note values have been halved Editorial accidentals above the staff Notice above the S voice : "Chantez a deux si bon vous samble" above the T voice :" Puis chanterez tous trois ensamble"     
C:Tielman Susato
%%score [ 1 2 3 ]
L:1/8
Q:1/4=81
M:2/2
K:F
V:1 treble nm="Superius" snm="S"
V:2 treble-8 nm="Tenor" snm="T"
V:3 bass nm="Bassus" snm="B"
V:1
 z8 | F4 F2 G2 | AG AB A2 c2 | B6 A2 | G4 z2 c2 | B2 A4 GF | E3 F G2 A2 | G2 F4 E2 | F4 z4 | %9
w: |Je prens en|gré _ _ _ _ la|du- re|mort pour|vous ma- da- *||me par a-|mours,|
 F4 F2 G2 | AG AB A2 c2 | B6 A2 | G4 z2 c2 | B2 A4 GF | E3 F G2 A2 | G2 F4 E2 | F4 z2 F2 | %17
w: na- vré m'a-|vez _ _ _ _ mais|à grant|tort dont|de brief _ _|_ fi- ni- ray|_ _ mes|iours, la|
 F2 F2 B3 A | G2 F2 G4 | z2 G2 G2 G2 | c3 B A2 G2 | F4 z2 A2 | A2 B2 A2 D2 | A4 B4 | A2 G4 F2 | %25
w: cho- se me vient|à re- bours|la cho- se|me vient à re-|bours, souf-|frir si tost la|mort a-|me- * *|
 G4 z2 c2 | cc c3 BAG | F2 G2 GG F2- | FEDC D2 B2 | BB B3 AGF | G2 z G G2 G2 | c3 B A2 G2 | %32
w: re, O,|du- re mort que faic- tes|vous, O, du- re mort|_ que faic- tes vous, O,|du- re mort que faic- tes|vous mou- rir my|fault cest cho- se|
 G2 F4 E2 | F4 z2 c2 | cc c3 BAG | F2 G2 GG F2- | FEDC D2 B2 | BB B3 AGF | G2 z G G2 G2 | %39
w: cle- * *|re, O,-|du- re mort que faic- tes|vous, O du- re mort|_ que faic- tes vous, O|du- re mort que faic- tes|vous, mou- rir my|
 c3 B A2 G2- | GF F4 E2 | F8 |] %42
w: fault c'est cho- se|_ _ clè- *|re.|
V:2
 F4 F2 G2 | A2 A2 B2 G2 | F2 f4 e2 | dcBA G2 F2 | z2 c2 B2 A2 | G2 F3 GAB | c2 c2 B2 c2- | %7
w: Je prens en|gré la du- re|mort pour vous|ma _ _ _ da- me,|pour vous ma|da- * * * *|me par a- *|
 cB A2 G4 | z2 F2 F2 G2 | A2 A2 B2 G2 | F2 f4 e2 | dcBA G2 F2 | z2 c2 B2 A2 | G2 F2 A3 B | %14
w: * * * mours,|na- vré m'a-|vez, mais à grant|tort dont de|brief, _ _ _ _ _|dont de brief|_ _ fi- ni-|
 c4 B2 c2- | cB A2 G4 | z2 F2 F2 F2 | B3 A GFGA | Bc d2 B c2 B | c4 z2 c2 | c2 c2 f2 e2 | %21
w: ray mes iours,|_ _ _ _|la cho- se|me _ vient _ _ _|à _ _ re- * *|bours, la|cho- se me vient|
 d2 d2 cBAG | F2 G2 A2 B2 | c2 d4 B2 | cBBA/G/ A4 | G2 c2 cc c2 | z fff f3 e | dc BA GABc | %28
w: à re- bours, _ _ _|_ souf- frir si|tost la mort|a- * * * * me-|re, O du- re mort|O du- re mort que|faic- * tes _ vous, _ _ _|
 d2 B2 BB B2- | BAGF G4 | z GGG c2 z c | ccfF FFcB | A2 B2 G4 | F8 | f2 ff f3 e | dc BA GABc | %36
w: _ O du- re mort|_ que faic- tes vpous,|mou- rir my fault, mou-|rir my fault, mou- rir my fault c'est|cho- se clè-|re,|O du- re mort que|Faic- * tes _ vous, _ _ _|
 d2 B2 BB B2- | BAGF G4 | z GGG c2 z c | ccfF FFcB | A2 B2 G4 | F8 |] %42
w: _ O du- re mort,|_ _ _ _ _|mou- rir my fault, mou-|rir my fault, mou- rir my fault, c'est|cho- se clè-|re.|
V:3
 z8 | F,4 B,,2 E,2 | D,6 C,2 | G,3 F, _E,2 F,2 | _E,2 C,2 D,E, F,2 | G,2 A,2 z2 C2- | %6
w: |Je prens en|gré la|du- re mort pour|vous ma- da- * *|* me, pour-|
 CB, A,2 G,2 F,2 | E,2 F,2 C,4 | F,4 z4 | F,4 B,,2 E,2 | D,6 C,2 | G,3 F, _E,2 F,2 | %12
w: _ _ vous ma- da-|me par a-|mours,|na- vre m'a-|vez mais|à _ _ grant|
 _E,2 C,2 D,E, F,2 | G,2 A,2 z2 C2- | CB, A,2 G,2 F,2 | E,2 F,2 C,4 | F,4 B,,2 B,,2 | %17
w: tort, mais à _ _|grant tort, dont|_ _ de brief fi-|ni- ray mes|iours, la cho-|
 B,,2 B,3 A,G,F, | _E,2 D,2 E,C, G,2 | z C,C,C, C3 B, | A,3 G, F,2 C,2 | D,2 B,,2 F,3 G, | %22
w: se- me _ _ _|vient à re- * bours,|la cho- se me vient|à re- bours, souf-|frir si tost- la|
 A,2 G,2 F,2 G,2 | F,2 D,2 G,4 | F,2 G,2 D,4 | z2 C,2 F,3 F, | F,4 z2 D,2 | D,D, _E,3 E,D,C, | %28
w: mort a- me- *|re, la mort|a- me- re,|O du- re|mort, O|du- re mort que faic- tes|
 B,,4 z4 | _E,2 E,E, E,2 D, z | C,B,, C,4 z2 | F,2 F,F, C2 C,2 | D,2 B,,2 C,4 | F,2 C2 CCCB, | %34
w: vous,|O- du- re mort que|faic- tes vous,|mou- rir my- fault cest|cho- se cle-|re, O du- re mort que|
 A,G, F,2 z2 D,2 | D,D, _E,3 E,D,C, | B,,4 z4 |"^b""^b""^b""^b" E,2 E,E, E,3 D, | %38
w: faic- tes vous, O|du- re mort que faic- tes|vous,|O du- re mort que|
 C,B,,C,C, C,C, C2 | z F,F,F, C2 C,2 | D,2 B,,2 C,4 | F,8 |] %42
w: faic- tes vous, mou- rir my fault,|mor- rir my fault cest|cho- se clè-|re.|

